<?xml version="1.0" encoding="UTF-8"?>
<map version="1.10" tiledversion="1.11.2" orientation="orthogonal" renderorder="right-down" width="8" height="10" tilewidth="32" tileheight="32" infinite="0" nextlayerid="7" nextobjectid="26">
 <tileset firstgid="1" source="tilesets/tourney.tsx"/>
 <layer id="1" name="Ground" width="8" height="10">
  <data encoding="csv">
323,324,325,326,327,328,329,330,
383,384,385,386,387,388,389,390,
443,444,445,446,447,448,449,450,
503,504,505,506,507,508,509,510,
563,564,565,566,567,568,569,570,
623,624,625,626,627,628,629,630,
683,684,685,686,687,688,689,690,
743,744,745,746,747,748,749,750,
803,804,805,806,807,808,809,810,
863,864,865,866,867,868,869,870
</data>
 </layer>
 <layer id="2" name="Decoration" width="8" height="10">
  <data encoding="csv">
0,0,0,0,0,0,0,0,
0,0,0,0,0,0,0,0,
0,0,0,0,0,0,0,0,
0,0,0,0,0,0,0,0,
0,0,0,0,0,0,0,0,
0,0,0,0,0,0,0,0,
0,0,0,0,0,0,0,0,
0,0,0,0,0,0,0,0,
0,0,0,0,0,0,0,0,
0,0,0,0,0,0,0,0
</data>
 </layer>
 <objectgroup id="3" name="Collisions">
  <object id="2" x="0.333333" y="7.33333" width="114" height="135"/>
  <object id="3" x="-0.333333" y="141.667" width="256.333" height="72"/>
  <object id="4" x="157" y="8.33333" width="99.3333" height="130.667"/>
  <object id="5" x="150" y="89.6667" width="8" height="13.6667"/>
  <object id="6" x="116" y="87.3333" width="7.33333" height="13.3333"/>
  <object id="7" x="115.333" y="116.667" width="9.33333" height="17"/>
  <object id="8" x="148.333" y="117.333" width="8.33333" height="16.3333"/>
  <object id="9" x="138.333" y="212" width="90.6667" height="46.6667"/>
  <object id="10" x="148" y="267" width="39.3333" height="51.6667"/>
  <object id="11" x="155.667" y="259" width="22" height="8"/>
  <object id="12" x="99.6667" y="250.333" width="8.66667" height="69.6667"/>
  <object id="13" x="-0.333333" y="274.667" width="100.333" height="45"/>
  <object id="14" x="0" y="213.667" width="37.6667" height="61"/>
  <object id="15" x="37.6667" y="214" width="9" height="15.6667"/>
  <object id="16" x="67.6667" y="242.333" width="10.3333" height="11"/>
  <object id="17" x="76.3333" y="229" width="9.66667" height="29.6667"/>
  <object id="18" x="84.3333" y="227" width="54.3333" height="8.66667"/>
  <object id="19" x="109" y="314.667" width="42" height="5.33333"/>
  <object id="22" x="115.333" y="57.6667" width="41.3333" height="10"/>
  <object id="23" x="116.333" y="70" width="9" height="9.33333"/>
 </objectgroup>
 <objectgroup id="4" name="Transitions">
  <object id="20" x="136.333" y="134">
   <properties>
    <property name="spawn_x" type="int" value="22"/>
    <property name="spawn_y" type="int" value="10"/>
    <property name="target_zone" value="&quot;campus&quot;"/>
   </properties>
  </object>
  <object id="21" x="128.333" y="304.667">
   <properties>
    <property name="spawn_x" type="int" value="0"/>
    <property name="spawn_y" type="int" value="0"/>
    <property name="target_zone" value="&quot;alentours&quot;"/>
   </properties>
  </object>
  <object id="24" x="135.667" y="69.6667">
   <properties>
    <property name="spawn_x" type="int" value="0"/>
    <property name="spawn_y" type="int" value="1"/>
    <property name="target_zone" value="&quot;quart&quot;"/>
   </properties>
  </object>
 </objectgroup>
 <objectgroup id="6" name="Grass">
  <object id="25" x="40" y="230.667" width="24.6667" height="20"/>
 </objectgroup>
 <objectgroup id="5" name="Spawns"/>
</map>
