<?xml version="1.0" encoding="UTF-8"?>
<map version="1.10" tiledversion="1.11.2" orientation="orthogonal" renderorder="right-down" width="23" height="19" tilewidth="32" tileheight="32" infinite="0" nextlayerid="8" nextobjectid="81">
 <tileset firstgid="1" source="tilesets/map1.tsx"/>
 <tileset firstgid="1981" source="tilesets/map4.tsx"/>
 <layer id="1" name="Ground" width="23" height="19">
  <data encoding="csv">
2014,2015,2016,2017,2018,2019,2020,2021,2022,2023,2024,2025,2026,2027,2028,2029,2030,2031,2032,2033,2034,2035,2036,
2046,2047,2048,2049,2050,2051,2052,2053,2054,2055,2056,2057,2058,2059,2060,2061,2062,2063,2064,2065,2066,2067,2068,
2078,2079,2080,2081,2082,2083,2084,2085,2086,2087,2088,2089,2090,2091,2092,2093,2094,2095,2096,2097,2098,2099,2100,
2110,2111,2112,2113,2114,2115,2116,2117,2118,2119,2120,2121,2122,2123,2124,2125,2126,2127,2128,2129,2130,2131,2132,
2142,2143,2144,2145,2146,2147,2148,2149,2150,2151,2152,2153,2154,2155,2156,2157,2158,2159,2160,2161,2162,2163,2164,
2174,2175,2176,2177,2178,2179,2180,2181,2182,2183,2184,2185,2186,2187,2188,2189,2190,2191,2192,2193,2194,2195,2196,
2206,2207,2208,2209,2210,2211,2212,2213,2214,2215,2216,2217,2218,2219,2220,2221,2222,2223,2224,2225,2226,2227,2228,
2238,2239,2240,2241,2242,2243,2244,2245,2246,2247,2248,2249,2250,2251,2252,2253,2254,2255,2256,2257,2258,2259,2260,
2270,2271,2272,2273,2274,2275,2276,2277,2278,2279,2280,2281,2282,2283,2284,2285,2286,2287,2288,2289,2290,2291,2292,
2302,2303,2304,2305,2306,2307,2308,2309,2310,2311,2312,2313,2314,2315,2316,2317,2318,2319,2320,2321,2322,2323,2324,
2334,2335,2336,2337,2338,2339,2340,2341,2342,2343,2344,2345,2346,2347,2348,2349,2350,2351,2352,2353,2354,2355,2356,
2366,2367,2368,2369,2370,2371,2372,2373,2374,2375,2376,2377,2378,2379,2380,2381,2382,2383,2384,2385,2386,2387,2388,
2398,2399,2400,2401,2402,2403,2404,2405,2406,2407,2408,2409,2410,2411,2412,2413,2414,2415,2416,2417,2418,2419,2420,
2430,2431,2432,2433,2434,2435,2436,2437,2438,2439,2440,2441,2442,2443,2444,2445,2446,2447,2448,2449,2450,2451,2452,
2462,2463,2464,2465,2466,2467,2468,2469,2470,2471,2472,2473,2474,2475,2476,2477,2478,2479,2480,2481,2482,2483,2484,
2494,2495,2496,2497,2498,2499,2500,2501,2502,2503,2504,2505,2506,2507,2508,2509,2510,2511,2512,2513,2514,2515,2516,
2526,2527,2528,2529,2530,2531,2532,2533,2534,2535,2536,2537,2538,2539,2540,2541,2542,2543,2544,2545,2546,2547,2548,
2558,2559,2560,2561,2562,2563,2564,2565,2566,2567,2568,2569,2570,2571,2572,2573,2574,2575,2576,2577,2578,2579,2580,
2590,2591,2592,2593,2594,2595,2596,2597,2598,2599,2600,2601,2602,2603,2604,2605,2606,2607,2608,2609,2610,2611,2612
</data>
 </layer>
 <layer id="2" name="Decoration" width="23" height="19">
  <data encoding="csv">
2014,2015,2016,2017,2018,0,0,0,0,0,0,0,0,2027,2028,2029,2030,2031,2032,2033,2034,2035,2036,
2046,0,0,0,0,0,0,0,0,0,0,0,0,2059,2060,2061,0,0,2064,2065,2066,2067,2068,
2078,0,0,0,0,0,0,0,0,0,0,0,0,0,0,0,0,0,2096,2097,2098,2099,2100,
2110,0,0,0,0,0,0,0,0,0,0,0,0,2123,2124,2125,0,0,0,2129,2130,2131,2132,
2142,2143,0,0,0,0,0,0,0,0,0,0,0,2155,2156,2157,0,0,0,2161,2162,2163,2164,
2174,2175,0,0,0,0,0,0,0,0,0,0,0,0,0,0,0,0,0,2193,2194,2195,2196,
2206,2207,0,0,0,0,0,0,0,2215,2216,0,0,0,0,0,0,0,0,2225,2226,2227,2228,
2238,2239,0,0,0,0,0,0,0,2247,2248,0,0,0,0,0,0,0,0,2257,2258,2259,2260,
2270,2271,0,0,0,0,0,0,0,0,0,0,0,0,2284,2285,0,0,0,2289,2290,2291,2292,
2302,2303,0,0,0,0,0,0,0,0,0,0,0,0,2316,2317,0,0,0,2321,2322,2323,2324,
2334,2335,2336,2337,2338,2339,2340,0,0,2343,0,0,2346,2347,2348,2349,2350,2351,0,0,0,0,0,
2366,2367,2368,2369,2370,2371,2372,0,0,2375,0,0,2378,2379,2380,2381,2382,2383,0,2385,2386,2387,2388,
2398,2399,0,0,0,0,2404,0,0,2407,0,0,2410,2411,2412,2413,2414,2415,0,2417,2418,2419,2420,
2430,2431,0,0,0,0,0,0,0,0,0,0,2442,2443,2444,2445,2446,2447,0,2449,2450,2451,2452,
2462,2463,0,0,0,0,2468,2469,0,0,0,0,2474,2475,2476,2477,2478,2479,0,2481,2482,2483,2484,
2494,2495,0,0,0,0,2500,2501,0,0,0,0,0,0,0,0,0,0,0,2513,2514,2515,2516,
2526,2527,0,0,0,0,0,0,0,0,0,0,0,0,0,0,0,0,0,2545,2546,2547,2548,
2558,2559,2560,2561,2562,2563,2564,2565,2566,0,0,2569,2570,2571,2572,2573,2574,2575,2576,2577,2578,2579,2580,
2590,2591,2592,2593,2594,2595,2596,2597,2598,0,0,2601,2602,2603,2604,2605,2606,2607,2608,2609,2610,2611,2612
</data>
 </layer>
 <objectgroup id="4" name="Collisions">
  <object id="4" x="390.875" y="233.625" width="65.125" height="62.75"/>
  <object id="6" x="458.333" y="250" width="28.6667" height="44"/>
  <object id="8" x="388" y="350" width="163.333" height="39.3333"/>
  <object id="9" x="617.333" y="363.333" width="118" height="245.333"/>
  <object id="11" x="357.333" y="554" width="259.333" height="54"/>
  <object id="12" x="1.33333" y="552" width="294.667" height="55.3333"/>
  <object id="13" x="1.33333" y="142.667" width="70" height="408"/>
  <object id="14" x="38.6667" y="90" width="51.3333" height="27.3333"/>
  <object id="18" x="-0.666667" y="0.666667" width="41.3333" height="140.667"/>
  <object id="19" x="42.6667" y="0" width="124.667" height="24.6667"/>
  <object id="20" x="168" y="0.666667" width="176" height="87.3333"/>
  <object id="21" x="141" y="109.333" width="63.33" height="10"/>
  <object id="25" x="297.333" y="108.667" width="238.67" height="4"/>
  <object id="26" x="378" y="87.3333" width="108.667" height="21.3333"/>
  <object id="27" x="346.667" y="0.666667" width="77.3333" height="70.6667"/>
  <object id="28" x="424" y="-1.33333" width="160.667" height="12"/>
  <object id="29" x="433.333" y="26" width="6" height="44"/>
  <object id="30" x="442" y="56.6667" width="46" height="14"/>
  <object id="33" x="586" y="0" width="148.667" height="61"/>
  <object id="34" x="635.67" y="86" width="100" height="223.333"/>
  <object id="35" x="601.333" y="296.667" width="14" height="16"/>
  <object id="36" x="298" y="188.667" width="27.3333" height="73.3333"/>
  <object id="37" x="280.667" y="217.333" width="14.6667" height="14"/>
  <object id="38" x="152.667" y="217.333" width="14.6667" height="14"/>
  <object id="39" x="168" y="184.667" width="108" height="60.6667"/>
  <object id="40" x="238" y="246.667" width="38.6667" height="8"/>
  <object id="41" x="169.333" y="245.333" width="39.3333" height="8.66667"/>
  <object id="42" x="152.667" y="244" width="15.3333" height="20"/>
  <object id="43" x="122" y="188.667" width="26.6667" height="72.6667"/>
  <object id="44" x="73.3333" y="311.333" width="254.667" height="16"/>
  <object id="45" x="320.667" y="264.667" width="6.66667" height="48"/>
  <object id="46" x="298.667" y="332" width="26.6667" height="74"/>
  <object id="47" x="216" y="337.333" width="79.3333" height="54"/>
  <object id="48" x="265.333" y="392" width="28.6667" height="16"/>
  <object id="49" x="218" y="390.667" width="29.3333" height="17.3333"/>
  <object id="50" x="188" y="331.333" width="28" height="75.3333"/>
  <object id="51" x="297.333" y="471.333" width="14" height="16.6667"/>
  <object id="52" x="115" y="437.33" width="56" height="26.33"/>
  <object id="69" x="119.333" y="471.333" width="18" height="14"/>
  <object id="70" x="489.333" y="129.333" width="78.6667" height="56"/>
  <object id="71" x="392" y="470.667" width="78.6667" height="18"/>
  <object id="72" x="490" y="480" width="67.3333" height="6.66667"/>
  <object id="73" x="558" y="397.333" width="10" height="89.3333"/>
  <object id="74" x="392" y="392" width="170.667" height="14"/>
  <object id="75" x="392.667" y="397.333" width="7.33333" height="89.3333"/>
 </objectgroup>
 <objectgroup id="5" name="Grass">
  <object id="56" x="442.667" y="24.6667" width="68.6667" height="32.6667"/>
  <object id="57" x="417.333" y="120" width="68.6667" height="38"/>
  <object id="58" x="402.667" y="408" width="157.333" height="50"/>
  <object id="59" x="74.6667" y="326.667" width="92" height="48.6667"/>
  <object id="60" x="186.667" y="449.333" width="64.6667" height="42"/>
  <object id="61" x="169.333" y="89.3333" width="58" height="18.6667"/>
  <object id="62" x="118" y="26" width="50" height="47.3333"/>
  <object id="63" x="282" y="89.3333" width="61.3333" height="13.3333"/>
 </objectgroup>
 <objectgroup id="6" name="Transitions">
  <object id="64" x="256.667" y="402.667">
   <properties>
    <property name="spawn_x" type="int" value="0"/>
    <property name="spawn_y" type="int" value="2"/>
    <property name="target_zone" value="&quot;pokemon_center&quot;"/>
   </properties>
  </object>
  <object id="65" x="431.333" y="292.667">
   <properties>
    <property name="spawn_x" type="int" value="1"/>
    <property name="spawn_y" type="int" value="2"/>
    <property name="target_zone" value="&quot;market&quot;"/>
   </properties>
  </object>
  <object id="66" x="254.667" y="119.33">
   <properties>
    <property name="spawn_x" type="int" value="5"/>
    <property name="spawn_y" type="int" value="3"/>
    <property name="target_zone" value="&quot;school&quot;"/>
   </properties>
  </object>
  <object id="67" x="332" y="577.67">
   <properties>
    <property name="spawn_x" type="int" value="34"/>
    <property name="spawn_y" type="int" value="18"/>
    <property name="target_zone" value="&quot;outside&quot;"/>
   </properties>
  </object>
  <object id="68" x="706" y="336.667">
   <properties>
    <property name="spawn_x" type="int" value="4"/>
    <property name="spawn_y" type="int" value="3"/>
    <property name="target_zone" value="&quot;arena&quot;"/>
   </properties>
  </object>
 </objectgroup>
 <objectgroup id="7" name="Spawns">
  <object id="76" x="128.667" y="500.667">
   <properties>
    <property name="spawn_type" value="&quot;player&quot;"/>
   </properties>
  </object>
  <object id="77" x="498" y="468.667">
   <properties>
    <property name="level" value="&quot;B1&quot;"/>
    <property name="npc_name" value="&quot;Maxime&quot;"/>
    <property name="spawn_type" value="&quot;trainer&quot;"/>
    <property name="sprite" value="&quot;g3_maxime&quot;"/>
   </properties>
  </object>
  <object id="78" x="555.333" y="194.667">
   <properties>
    <property name="level" value="&quot;B1&quot;"/>
    <property name="npc_name" value="&quot;Théo&quot;"/>
    <property name="spawn_type" value="&quot;trainer&quot;"/>
    <property name="sprite" value="&quot;g1_theo&quot;"/>
   </properties>
  </object>
  <object id="79" x="249.333" y="266">
   <properties>
    <property name="level" value="&quot;B2&quot;"/>
    <property name="npc_name" value="&quot;Jade&quot;"/>
    <property name="spawn_type" value="&quot;trainer&quot;"/>
    <property name="sprite" value="&quot;f3_jade&quot;"/>
   </properties>
  </object>
 </objectgroup>
</map>
