<?xml version="1.0" encoding="UTF-8"?>
<map version="1.10" tiledversion="1.11.2" orientation="orthogonal" renderorder="right-down" width="5" height="4" tilewidth="32" tileheight="32" infinite="0" nextlayerid="5" nextobjectid="28">
 <tileset firstgid="1" source="tilesets/demimap.tsx"/>
 <layer id="1" name="Ground" width="5" height="4">
  <data encoding="csv">
1097,1098,1099,1100,1101,
1157,1158,1159,1160,1161,
1217,1218,1219,1220,1221,
1277,1278,1279,1280,1281
</data>
 </layer>
 <objectgroup id="2" name="Collisions">
  <object id="3" x="54.3636" y="41.2727" width="4.54545" height="22"/>
  <object id="4" x="59.0909" y="48.1818" width="11.6364" height="15.6364"/>
  <object id="5" x="71.0909" y="57.0909" width="23.4545" height="14.3636"/>
  <object id="6" x="78.5455" y="72.3636" width="7.45455" height="12.9091"/>
  <object id="8" x="48.5455" y="78.9091" width="30.1818" height="7.27273"/>
  <object id="9" x="86.3636" y="79.0909" width="25.64" height="8.36364"/>
  <object id="11" x="110.182" y="46" width="8.72727" height="8.90909"/>
  <object id="19" x="12.9091" y="54.5455" width="10.5455" height="73.2727"/>
 </objectgroup>
 <objectgroup id="3" name="Transitions">
  <object id="23" x="39.2727" y="45.8182">
   <properties>
    <property name="spawn_x" type="int" value="3"/>
    <property name="spawn_y" type="int" value="0"/>
    <property name="target_zone" value="&quot;quart&quot;"/>
   </properties>
  </object>
  <object id="24" x="131.273" y="47.2727">
   <properties>
    <property name="spawn_x" type="int" value="0"/>
    <property name="spawn_y" type="int" value="2"/>
    <property name="target_zone" value="&quot;finale&quot;"/>
   </properties>
  </object>
 </objectgroup>
 <objectgroup id="4" name="Spawns">
  <object id="27" x="96" y="95.2727">
   <properties>
    <property name="level" value="&quot;B3&quot;"/>
    <property name="npc_name" value="&quot;Channel&quot;"/>
    <property name="spawn_type" value="&quot;trainer&quot;"/>
    <property name="sprite" value="channel"/>
   </properties>
  </object>
 </objectgroup>
</map>
