<?xml version="1.0" encoding="UTF-8"?>
<map version="1.10" tiledversion="1.11.2" orientation="orthogonal" renderorder="right-down" width="4" height="4" tilewidth="32" tileheight="32" infinite="0" nextlayerid="5" nextobjectid="28">
 <tileset firstgid="1" source="tilesets/finalemap.tsx"/>
 <layer id="1" name="Ground" width="4" height="4">
  <data encoding="csv">
1102,1103,1104,1105,
1162,1163,1164,1165,
1222,1223,1224,1225,
1282,1283,1284,1285
</data>
 </layer>
 <objectgroup id="2" name="Collisions">
  <object id="3" x="56" y="50.875" width="24.125" height="20.625"/>
  <object id="8" x="3.125" y="55.25" width="5.625" height="72.875"/>
  <object id="16" x="66.25" y="78.75" width="32.25" height="7.875"/>
  <object id="17" x="64.625" y="71.625" width="7.75" height="7"/>
  <object id="19" x="95.75" y="45" width="7.625" height="9.875"/>
  <object id="25" x="106.125" y="39.5" width="7.125" height="10"/>
 </objectgroup>
 <objectgroup id="3" name="Transitions">
  <object id="26" x="28.625" y="46.875">
   <properties>
    <property name="spawn_x" type="int" value="4"/>
    <property name="spawn_y" type="int" value="1"/>
    <property name="target_zone" value="&quot;demi&quot;"/>
   </properties>
  </object>
 </objectgroup>
 <objectgroup id="4" name="Spawns">
  <object id="27" x="85.375" y="94.375">
   <properties>
    <property name="level" value="&quot;B3&quot;"/>
    <property name="npc_name" value="&quot;Etudiant B3&quot;"/>
    <property name="spawn_type" value="&quot;trainer&quot;"/>
    <property name="sprite" value="etudiantb3"/>
   </properties>
  </object>
 </objectgroup>
</map>
