<?xml version="1.0" encoding="UTF-8"?>
<map version="1.10" tiledversion="1.11.2" orientation="orthogonal" renderorder="right-down" width="36" height="19" tilewidth="32" tileheight="32" infinite="0" nextlayerid="6" nextobjectid="23">
 <tileset firstgid="1" source="tilesets/alentoursmap.tsx"/>
 <layer id="1" name="Ground" width="36" height="19">
  <data encoding="csv">
493,494,495,496,497,498,499,500,501,502,503,504,505,506,507,508,509,510,511,512,513,514,515,516,517,518,519,520,521,522,523,524,525,526,527,528,
553,554,555,556,557,558,559,560,561,562,563,564,565,566,567,568,569,570,571,572,573,574,575,576,577,578,579,580,581,582,583,584,585,586,587,588,
613,614,615,616,617,618,619,620,621,622,623,624,625,626,627,628,629,630,631,632,633,634,635,636,637,638,639,640,641,642,643,644,645,646,647,648,
673,674,675,676,677,678,679,680,681,682,683,684,685,686,687,688,689,690,691,692,693,694,695,696,697,698,699,700,701,702,703,704,705,706,707,708,
733,734,735,736,737,738,739,740,741,742,743,744,745,746,747,748,749,750,751,752,753,754,755,756,757,758,759,760,761,762,763,764,765,766,767,768,
793,794,795,796,797,798,799,800,801,802,803,804,805,806,807,808,809,810,811,812,813,814,815,816,817,818,819,820,821,822,823,824,825,826,827,828,
853,854,855,856,857,858,859,860,861,862,863,864,865,866,867,868,869,870,871,872,873,874,875,876,877,878,879,880,881,882,883,884,885,886,887,888,
913,914,915,916,917,918,919,920,921,922,923,924,925,926,927,928,929,930,931,932,933,934,935,936,937,938,939,940,941,942,943,944,945,946,947,948,
973,974,975,976,977,978,979,980,981,982,983,984,985,986,987,988,989,990,991,992,993,994,995,996,997,998,999,1000,1001,1002,1003,1004,1005,1006,1007,1008,
1033,1034,1035,1036,1037,1038,1039,1040,1041,1042,1043,1044,1045,1046,1047,1048,1049,1050,1051,1052,1053,1054,1055,1056,1057,1058,1059,1060,1061,1062,1063,1064,1065,1066,1067,1068,
1093,1094,1095,1096,1097,1098,1099,1100,1101,1102,1103,1104,1105,1106,1107,1108,1109,1110,1111,1112,1113,1114,1115,1116,1117,1118,1119,1120,1121,1122,1123,1124,1125,1126,1127,1128,
1153,1154,1155,1156,1157,1158,1159,1160,1161,1162,1163,1164,1165,1166,1167,1168,1169,1170,1171,1172,1173,1174,1175,1176,1177,1178,1179,1180,1181,1182,1183,1184,1185,1186,1187,1188,
1213,1214,1215,1216,1217,1218,1219,1220,1221,1222,1223,1224,1225,1226,1227,1228,1229,1230,1231,1232,1233,1234,1235,1236,1237,1238,1239,1240,1241,1242,1243,1244,1245,1246,1247,1248,
1273,1274,1275,1276,1277,1278,1279,1280,1281,1282,1283,1284,1285,1286,1287,1288,1289,1290,1291,1292,1293,1294,1295,1296,1297,1298,1299,1300,1301,1302,1303,1304,1305,1306,1307,1308,
1333,1334,1335,1336,1337,1338,1339,1340,1341,1342,1343,1344,1345,1346,1347,1348,1349,1350,1351,1352,1353,1354,1355,1356,1357,1358,1359,1360,1361,1362,1363,1364,1365,1366,1367,1368,
1393,1394,1395,1396,1397,1398,1399,1400,1401,1402,1403,1404,1405,1406,1407,1408,1409,1410,1411,1412,1413,1414,1415,1416,1417,1418,1419,1420,1421,1422,1423,1424,1425,1426,1427,1428,
1453,1454,1455,1456,1457,1458,1459,1460,1461,1462,1463,1464,1465,1466,1467,1468,1469,1470,1471,1472,1473,1474,1475,1476,1477,1478,1479,1480,1481,1482,1483,1484,1485,1486,1487,1488,
1513,1514,1515,1516,1517,1518,1519,1520,1521,1522,1523,1524,1525,1526,1527,1528,1529,1530,1531,1532,1533,1534,1535,1536,1537,1538,1539,1540,1541,1542,1543,1544,1545,1546,1547,1548,
1573,1574,1575,1576,1577,1578,1579,1580,1581,1582,1583,1584,1585,1586,1587,1588,1589,1590,1591,1592,1593,1594,1595,1596,1597,1598,1599,1600,1601,1602,1603,1604,1605,1606,1607,1608
</data>
 </layer>
 <objectgroup id="2" name="Collisions">
  <object id="1" x="84" y="467" width="980" height="141"/>
  <object id="2" x="1058" y="-1" width="66" height="82"/>
  <object id="3" x="1123" y="0" width="30" height="608"/>
  <object id="4" x="30" y="3" width="57" height="82"/>
  <object id="5" x="1" y="0" width="26" height="606"/>
  <object id="6" x="89" y="-1" width="969" height="45"/>
 </objectgroup>
 <objectgroup id="5" name="Grass">
  <object id="7" x="660" y="318" width="97" height="130"/>
  <object id="8" x="781" y="378" width="97" height="69"/>
  <object id="9" x="906" y="380" width="151" height="32"/>
  <object id="10" x="968" y="152" width="96" height="82"/>
  <object id="11" x="824" y="176" width="57" height="76"/>
  <object id="12" x="417" y="278" width="97" height="54"/>
  <object id="13" x="472" y="359" width="159" height="57"/>
  <object id="14" x="393" y="194" width="59" height="38"/>
  <object id="15" x="154" y="195" width="215" height="34"/>
  <object id="16" x="93" y="56" width="74" height="112"/>
  <object id="17" x="92" y="355" width="299" height="40"/>
  <object id="18" x="603" y="176" width="32" height="75"/>
  <object id="19" x="536" y="48" width="82" height="64"/>
 </objectgroup>
 <objectgroup id="3" name="Transitions">
  <object id="20" x="1091" y="592">
   <properties>
    <property name="spawn_x" type="int" value="10"/>
    <property name="spawn_y" type="int" value="18"/>
    <property name="target_zone" value="&quot;campus&quot;"/>
   </properties>
  </object>
  <object id="21" x="54" y="595">
   <properties>
    <property name="spawn_x" type="int" value="4"/>
    <property name="spawn_y" type="int" value="9"/>
    <property name="target_zone" value="&quot;arena&quot;"/>
   </properties>
  </object>
 </objectgroup>
 <objectgroup id="4" name="Spawns"/>
</map>
