<?xml version="1.0" encoding="UTF-8"?>
<map version="1.10" tiledversion="1.11.2" orientation="orthogonal" renderorder="right-down" width="5" height="3" tilewidth="32" tileheight="32" infinite="0" nextlayerid="6" nextobjectid="15">
 <tileset firstgid="1" source="tilesets/map4.tsx"/>
 <tileset firstgid="865" source="tilesets/pokemoncenter.tsx"/>
 <layer id="1" name="Ground" width="5" height="3">
  <data encoding="csv">
1322,1323,1324,1325,1326,
1382,1383,1384,1385,1386,
1442,1443,1444,1445,1446
</data>
 </layer>
 <layer id="2" name="Decoration" width="5" height="3">
  <data encoding="csv">
1322,1323,1324,1325,0,
0,1383,1384,1385,1386,
0,0,0,0,1446
</data>
 </layer>
 <objectgroup id="3" name="Collisions">
  <object id="2" x="123.625" y="70" width="22.625" height="24"/>
  <object id="3" x="121.625" y="0.875" width="13.5" height="25.125"/>
  <object id="4" x="0.125" y="2.375" width="34.875" height="23.25"/>
  <object id="5" x="135.25" y="1.5" width="24.875" height="17.5"/>
  <object id="6" x="35.375" y="13.125" width="15.75" height="30.5"/>
  <object id="7" x="51.25" y="28.75" width="70.375" height="15.125"/>
  <object id="8" x="97.75" y="18.125" width="23.5" height="10.375"/>
  <object id="9" x="69.875" y="0.25" width="28.625" height="17.875"/>
  <object id="10" x="50.125" y="9.25" width="22" height="19.125"/>
  <object id="11" x="0.125" y="62.625" width="9.875" height="25.5"/>
 </objectgroup>
 <objectgroup id="4" name="Transitions">
  <object id="12" x="10.375" y="75.625">
   <properties>
    <property name="spawn_x" type="int" value="8"/>
    <property name="spawn_y" type="int" value="12"/>
    <property name="target_zone" value="&quot;campus&quot;"/>
   </properties>
  </object>
 </objectgroup>
 <objectgroup id="5" name="Spawns">
  <object id="14" x="84" y="20.5455">
   <properties>
    <property name="npc_name" value="&quot;infirmière&quot;"/>
    <property name="spawn_type" value="&quot;nurse&quot;"/>
    <property name="sprite" value="&quot;assets/sprites/npcs/nurse.png&quot;"/>
   </properties>
  </object>
 </objectgroup>
</map>
