<?xml version="1.0" encoding="UTF-8"?>
<map version="1.10" tiledversion="1.11.2" orientation="orthogonal" renderorder="right-down" width="4" height="4" tilewidth="32" tileheight="32" infinite="0" nextlayerid="5" nextobjectid="23">
 <tileset firstgid="1" source="tilesets/quartmap.tsx"/>
 <layer id="1" name="Ground" width="4" height="4">
  <data encoding="csv">
1273,1274,1275,1276,
1333,1334,1335,1336,
1393,1394,1395,1396,
1453,1454,1455,1456
</data>
 </layer>
 <objectgroup id="2" name="Collisions">
  <object id="1" x="-0.363636" y="101.273" width="128.364" height="26.9091"/>
  <object id="2" x="-0.363636" y="-0.363636" width="10.9091" height="104.182"/>
  <object id="5" x="40.9091" y="16.3636" width="4.54545" height="22.9091"/>
  <object id="6" x="46" y="24" width="11.2727" height="15.8182"/>
  <object id="7" x="57.6364" y="31.6364" width="23.4545" height="15.4545"/>
  <object id="9" x="34.3636" y="54.5455" width="59.64" height="7.63636"/>
  <object id="10" x="65.8182" y="47.0909" width="7.81818" height="7.27273"/>
  <object id="18" x="80.5455" y="27.8182" width="16.3636" height="11.4545"/>
 </objectgroup>
 <objectgroup id="3" name="Transitions">
  <object id="20" x="25.8182" y="21.2727">
   <properties>
    <property name="spawn_x" type="int" value="4"/>
    <property name="spawn_y" type="int" value="2"/>
    <property name="target_zone" value="&quot;arena&quot;"/>
   </properties>
  </object>
  <object id="21" x="114.909" y="21.4545">
   <properties>
    <property name="spawn_x" type="int" value="1"/>
    <property name="spawn_y" type="int" value="0"/>
    <property name="target_zone" value="&quot;demi&quot;"/>
   </properties>
  </object>
 </objectgroup>
 <objectgroup id="4" name="Spawns">
  <object id="22" x="76.7273" y="45">
   <properties>
    <property name="level" value="&quot;B3&quot;"/>
    <property name="npc_name" value="&quot;Yanis&quot;"/>
    <property name="spawn_type" value="&quot;trainer&quot;"/>
    <property name="sprite" value="yanis"/>
   </properties>
  </object>
 </objectgroup>
</map>
