<?xml version="1.0" encoding="UTF-8"?>
<map version="1.10" tiledversion="1.11.2" orientation="orthogonal" renderorder="right-down" width="7" height="4" tilewidth="32" tileheight="32" infinite="0" nextlayerid="6" nextobjectid="16">
 <tileset firstgid="1" source="tilesets/schoolfloor.tsx"/>
 <layer id="1" name="Ground" width="7" height="4">
  <data encoding="csv">
1410,1411,1412,1413,1414,1415,1416,
1470,1471,1472,1473,1474,1475,1476,
1530,1531,1532,1533,1534,1535,1536,
1590,1591,1592,1593,1594,1595,1596
</data>
 </layer>
 <layer id="2" name="Decoration" width="7" height="4">
  <data encoding="csv">
0,0,0,0,0,0,0,
1470,1471,0,0,0,1475,1476,
1530,1531,0,1533,0,0,0,
0,0,0,0,0,0,0
</data>
 </layer>
 <objectgroup id="3" name="Collisions">
  <object id="3" x="16.5455" y="47.8182" width="50.1818" height="37.8182"/>
  <object id="4" x="0.909091" y="95.6364" width="15.2727" height="19.8182"/>
  <object id="5" x="90.9091" y="53.4545" width="12.3636" height="63.0909"/>
  <object id="6" x="0.181818" y="115.818" width="228.727" height="12"/>
  <object id="7" x="204.182" y="95.4545" width="19.8182" height="20.1818"/>
  <object id="8" x="166.727" y="42.5455" width="37.8182" height="24.7273"/>
  <object id="9" x="0.727273" y="0.181818" width="222.727" height="26.7273"/>
  <object id="10" x="-0.363636" y="27.0909" width="2.36364" height="67.2727"/>
  <object id="11" x="103.818" y="85.2727" width="24.9091" height="7.09091"/>
  <object id="12" x="103.455" y="111.455" width="25.2727" height="4"/>
 </objectgroup>
 <objectgroup id="4" name="Transitions">
  <object id="13" x="127.455" y="102.545">
   <properties>
    <property name="spawn_x" type="int" value="2"/>
    <property name="spawn_y" type="int" value="2"/>
    <property name="target_zone" value="&quot;school&quot;"/>
   </properties>
  </object>
 </objectgroup>
 <objectgroup id="5" name="Spawns">
<object id="15" x="34" y="64">
   <properties>
    <property name="npc_name" value="&quot;Tristan&quot;"/>
    <property name="spawn_type" value="&quot;professor&quot;"/>
    <property name="sprite" value="&quot;assets/sprites/npcs/tristan.png&quot;"/>
   </properties>
  </object>
 </objectgroup>
</map>
